**kern	**kern	**dynam
*part1	*part1	*part1
*staff2	*staff1	*
*I"Piano	*	*
*clefF4	*clefF4	*
*k[b-e-]	*k[b-e-]	*
*M3/8	*M3/8	*
=1	=1	=1
*	*^	*
!	!	!	!LO:DY:a
4.GGG 4.GG	4B-	(8DL 8d	p
.	.	8E-J) 8d	.
*	*v	*v	*
.	8r	.
=	=	=
*	*^	*
4.FFF#X 4.FF#X	4A	(8C#XL 8c#X	.
.	.	8DJ) 8d	.
*	*v	*v	*
.	8r	.
=	=	=
*	*^	*
(8GGGL 8GG	(8AL 8cn	8DL	.
8BBB- 8BB-	8B-J)	8GJ	.
*	*v	*v	*
8CCJ) 8C	8r	.
=	=	=
*	*^	*
4.DD 4.D	4A	(8GL	.
.	.	8F#XJ)	.
*	*v	*v	*
.	8r	.
=	=	=
*	*^	*
(8EE-L 8BB-	4A	(8GL 8B-	.
8EE-J) 8C	.	8GJ) 8c	.
*	*v	*v	*
8r	8r	.
=	=	=
(8DDL 8D	(8F#XL 8d	.
8DDJ) 8AA	8F#J) 8c	.
8r	8r	.
=	=	=
(8EE-L 8GG	(8GL 8B-	.
8EE-J) 8BB-	8GJ)	.
8r	8r	.
=	=	=
*-	*-	*-
!!!system-decoration: {(s1,s2)}
